X:1
T: The Old Favourite
R: jig
M: 6/8
L: 1/8
O:Trad. (17.1.2018/NS)
K:Gmaj
|:"G"B3 BAB| dBA G2B| "C"ded d2B| ded B2A|
"G"B3 BAB| dBA G2B| "C"ded "D"cBA| "G"G3 G3 :|
|:"G"g3 "D"f3| "C"efe "G"d2B| "D"ded d2B| ded B2d|
"G"g3 "D"f3|"C"efe "G"d2B|1 "D"dge dBA| "G"G2G GBd :|2 "D"dge dge| dge dBA ||


